src/lib/packages/icons/src/assets/filled/bug.svg

<svg width="24" height="24" viewBox="0 0 24 24" fill="none" xmlns="http://www.w3.org/2000/svg">
<path d="M21.75 20C21.75 20.414 21.414 20.75 21 20.75C20.586 20.75 20.25 20.414 20.25 20C20.25 18.759 19.24 17.75 18 17.75H17.313C16.477 19.359 14.947 20.5501 13.106 20.8931C12.922 20.9271 12.751 20.7771 12.751 20.5901V13C12.751 12.59 12.411 12.25 12.001 12.25C11.591 12.25 11.251 12.59 11.251 13V20.5901C11.251 20.7771 11.079 20.9271 10.896 20.8931C9.05503 20.5501 7.525 19.359 6.689 17.75H6.00003C4.76003 17.75 3.75003 18.759 3.75003 20C3.75003 20.414 3.41403 20.75 3.00003 20.75C2.58603 20.75 2.25003 20.414 2.25003 20C2.25003 17.932 3.93303 16.25 6.00003 16.25H6.14408C6.05808 15.845 6.00003 15.431 6.00003 15V13.75H3.00003C2.58603 13.75 2.25003 13.414 2.25003 13C2.25003 12.586 2.58603 12.25 3.00003 12.25H6.00003V10C6.00003 9.908 6.01312 9.82994 6.01712 9.74194C4.45412 9.68294 3.08897 8.66691 2.60697 7.18091L2.2891 6.23901C2.1571 5.84601 2.36802 5.42109 2.76102 5.28809C3.15502 5.15809 3.57897 5.36803 3.71097 5.75903L4.03104 6.70898C4.32604 7.61798 5.1661 8.23302 6.1221 8.24902C6.2161 8.25002 6.30304 8.25095 6.38504 8.25195C6.84304 7.42095 7.71103 6.99902 9.00003 6.99902H15C16.289 6.99902 17.157 7.42095 17.615 8.25195C17.697 8.25195 17.784 8.25102 17.878 8.24902C18.834 8.23402 19.6741 7.61902 19.9671 6.71802L20.2891 5.76001C20.4211 5.36801 20.848 5.15906 21.239 5.28906C21.632 5.42106 21.843 5.84699 21.711 6.23999L21.3911 7.18994C20.9111 8.66694 19.5469 9.68294 17.9839 9.74194C17.9879 9.82994 18.001 9.908 18.001 10V12.25H21.001C21.415 12.25 21.751 12.586 21.751 13C21.751 13.414 21.415 13.75 21.001 13.75H18.001V15C18.001 15.431 17.943 15.845 17.857 16.25H18C20.067 16.25 21.75 17.932 21.75 20ZM9.43192 5.5H14.5681C14.7621 5.5 14.9191 5.31393 14.8621 5.12793C14.4891 3.89693 13.352 3 12 3C10.648 3 9.51097 3.89693 9.13797 5.12793C9.08097 5.31393 9.23792 5.5 9.43192 5.5Z" fill="currentColor"/>
</svg>

<svg xmlns="http://www.w3.org/2000/svg" width="24" height="24" fill="none"><path fill="currentColor" d="M21.75 20a.75.75 0 0 1-1.5 0c0-1.241-1.01-2.25-2.25-2.25h-.687a5.992 5.992 0 0 1-4.207 3.143.306.306 0 0 1-.355-.303V13c0-.41-.34-.75-.75-.75s-.75.34-.75.75v7.59a.307.307 0 0 1-.355.303 5.992 5.992 0 0 1-4.207-3.143H6A2.253 2.253 0 0 0 3.75 20a.75.75 0 0 1-1.5 0A3.755 3.755 0 0 1 6 16.25h.144A5.985 5.985 0 0 1 6 15v-1.25H3a.75.75 0 0 1 0-1.5h3V10c0-.092.013-.17.017-.258a3.722 3.722 0 0 1-3.41-2.561l-.318-.942a.751.751 0 0 1 1.422-.48l.32.95a2.232 2.232 0 0 0 2.091 1.54l.263.003C6.843 7.421 7.711 6.999 9 6.999h6c1.289 0 2.157.422 2.615 1.253l.263-.003a2.228 2.228 0 0 0 2.09-1.531l.321-.958a.75.75 0 0 1 1.422.48l-.32.95a3.72 3.72 0 0 1-3.407 2.552c.004.088.017.166.017.258v2.25h3a.75.75 0 0 1 0 1.5h-3V15c0 .431-.058.845-.144 1.25H18A3.755 3.755 0 0 1 21.75 20ZM9.432 5.5h5.136c.194 0 .351-.186.294-.372A2.992 2.992 0 0 0 12 3a2.992 2.992 0 0 0-2.862 2.128c-.057.186.1.372.294.372Z"/></svg>
